content/img/checkmark-light-green.svg

<svg width="42" height="42" viewBox="0 0 42 42" fill="none" xmlns="http://www.w3.org/2000/svg">
<path d="M21 42C32.598 42 42 32.598 42 21C42 9.40202 32.598 0 21 0C9.40202 0 0 9.40202 0 21C0 32.598 9.40202 42 21 42Z" fill="#D3F3DB"/>
<path d="M13.8701 20.9708C13.2052 20.2694 12.0976 20.2396 11.3961 20.9045C10.6946 21.5693 10.6649 22.677 11.3298 23.3784L13.8701 20.9708ZM17.4577 27.3L16.1876 28.5038C16.5181 28.8526 16.9773 29.05 17.4577 29.05C17.9382 29.05 18.3974 28.8526 18.728 28.5038L17.4577 27.3ZM30.6701 15.9039C31.335 15.2024 31.3052 14.0948 30.6038 13.4299C29.9022 12.765 28.7947 12.7947 28.1298 13.4962L30.6701 15.9039ZM11.3298 23.3784L16.1876 28.5038L18.728 26.0962L13.8701 20.9708L11.3298 23.3784ZM18.728 28.5038L30.6701 15.9039L28.1298 13.4962L16.1876 26.0962L18.728 28.5038Z" fill="#43C465"/>
</svg>

<svg width="42" height="42" viewBox="0 0 42 42" fill="none" xmlns="http://www.w3.org/2000/svg"><path d="M21 42c11.598 0 21-9.402 21-21S32.598 0 21 0 0 9.402 0 21s9.402 21 21 21z" fill="#D3F3DB"/><path d="M13.87 20.97a1.75 1.75 0 00-2.54 2.408l2.54-2.407zm3.588 6.33l-1.27 1.204a1.75 1.75 0 002.54 0l-1.27-1.204zM30.67 15.904a1.75 1.75 0 00-2.54-2.408l2.54 2.408zm-19.34 7.474l4.858 5.126 2.54-2.408-4.858-5.125-2.54 2.407zm7.398 5.126l11.942-12.6-2.54-2.408-11.942 12.6 2.54 2.408z" fill="#43C465"/></svg>
